assets/logos/slack.svg

<svg width="80" height="80" viewBox="0 0 80 80" fill="none" xmlns="http://www.w3.org/2000/svg">
<path fill-rule="evenodd" clip-rule="evenodd" d="M31.465 8C27.9272 8.00261 25.064 10.8737 25.0666 14.4115C25.064 17.9493 27.9298 20.8203 31.4676 20.8229H37.8686V14.4141C37.8712 10.8763 35.0054 8.00523 31.465 8C31.4676 8 31.4676 8 31.465 8V8ZM31.465 25.1007H14.4009C10.8631 25.1033 7.99727 27.9744 7.99989 31.5122C7.99466 35.05 10.8605 37.921 14.3983 37.9263H31.465C35.0028 37.9237 37.8686 35.0526 37.866 31.5148C37.8686 27.9744 35.0028 25.1033 31.465 25.1007Z" fill="#36C5F0"/>
<path fill-rule="evenodd" clip-rule="evenodd" d="M71.9998 31.5122C72.0024 27.9744 69.1366 25.1033 65.5988 25.1007C62.061 25.1033 59.1951 27.9744 59.1977 31.5122V37.9263H65.5988C69.1366 37.9237 72.0024 35.0526 71.9998 31.5122ZM54.933 31.5122V14.4115C54.9356 10.8763 52.0724 8.00523 48.5346 8C44.9968 8.00261 42.1309 10.8737 42.1336 14.4115V31.5122C42.1283 35.05 44.9941 37.921 48.532 37.9263C52.0698 37.9237 54.9356 35.0526 54.933 31.5122Z" fill="#2EB67D"/>
<path fill-rule="evenodd" clip-rule="evenodd" d="M48.532 72.1277C52.0698 72.1251 54.9356 69.2541 54.933 65.7163C54.9356 62.1785 52.0698 59.3074 48.532 59.3048H42.131V65.7163C42.1284 69.2515 44.9942 72.1225 48.532 72.1277ZM48.532 55.0244H65.5987C69.1365 55.0218 72.0023 52.1507 71.9997 48.6129C72.005 45.0751 69.1391 42.2041 65.6013 42.1989H48.5346C44.9968 42.2015 42.131 45.0725 42.1336 48.6103C42.131 52.1507 44.9942 55.0218 48.532 55.0244Z" fill="#ECB22E"/>
<path fill-rule="evenodd" clip-rule="evenodd" d="M8.00012 48.6128C7.99751 52.1506 10.8633 55.0217 14.4011 55.0243C17.9389 55.0217 20.8048 52.1506 20.8021 48.6128V42.2013H14.4011C10.8633 42.2039 7.99751 45.075 8.00012 48.6128ZM25.0669 48.6128V65.7136C25.0616 69.2514 27.9274 72.1225 31.4653 72.1277C35.0031 72.1251 37.8689 69.254 37.8663 65.7162V48.618C37.8715 45.0802 35.0057 42.2091 31.4679 42.2039C27.9274 42.2039 25.0642 45.075 25.0669 48.6128C25.0669 48.6154 25.0669 48.6128 25.0669 48.6128Z" fill="#E01E5A"/>
</svg>

<svg xmlns="http://www.w3.org/2000/svg" width="80" height="80" fill="none" viewBox="0 0 80 80"><path fill="#36c5f0" fill-rule="evenodd" d="M31.465 8a6.404 6.404 0 0 0-6.398 6.412 6.407 6.407 0 0 0 6.4 6.41h6.402v-6.408A6.41 6.41 0 0 0 31.465 8q.004 0 0 0m0 17.1H14.401A6.407 6.407 0 0 0 8 31.513a6.407 6.407 0 0 0 6.398 6.414h17.067a6.407 6.407 0 0 0 6.401-6.411 6.407 6.407 0 0 0-6.401-6.414" clip-rule="evenodd"/><path fill="#2eb67d" fill-rule="evenodd" d="M72 31.512a6.407 6.407 0 0 0-6.401-6.411 6.407 6.407 0 0 0-6.401 6.411v6.414h6.4A6.407 6.407 0 0 0 72 31.512m-17.067 0v-17.1A6.41 6.41 0 0 0 48.535 8a6.407 6.407 0 0 0-6.401 6.412v17.1a6.407 6.407 0 0 0 6.398 6.414 6.407 6.407 0 0 0 6.401-6.414" clip-rule="evenodd"/><path fill="#ecb22e" fill-rule="evenodd" d="M48.532 72.128a6.407 6.407 0 0 0 6.401-6.412 6.407 6.407 0 0 0-6.401-6.411h-6.401v6.411a6.41 6.41 0 0 0 6.401 6.412m0-17.104h17.067a6.407 6.407 0 0 0 6.4-6.411 6.406 6.406 0 0 0-6.398-6.414H48.535a6.407 6.407 0 0 0-6.401 6.411 6.405 6.405 0 0 0 6.398 6.414" clip-rule="evenodd"/><path fill="#e01e5a" fill-rule="evenodd" d="M8 48.613a6.407 6.407 0 0 0 6.401 6.411 6.407 6.407 0 0 0 6.401-6.411V42.2h-6.4A6.407 6.407 0 0 0 8 48.613m17.067 0v17.1a6.406 6.406 0 0 0 6.398 6.415 6.407 6.407 0 0 0 6.401-6.412V48.618a6.407 6.407 0 0 0-6.398-6.414 6.4 6.4 0 0 0-6.401 6.409q0 .002 0 0" clip-rule="evenodd"/></svg>
